X:37
T:Appenzeller Ländlerli
M:3/4
L:1/8
C:trad?
S:Hermann Fritz
A:Appenzell, Schweiz
K:G
Bc|BddBdB|cddFAB|cddcdc|BddGBd|BddBdB|cddFAB|cddcAF|G4   :|
|:AB|c2 ecAF|G2 DB,DG|F2 DCDF |G2 A2 B2 |c2 ecAF|"@al Coda"G2 DB,DG|F2 D
CDF|"D.C."G4   :|!
"@ Coda:"|G2 B2 d2 |d2 e2 f2 |g2 d2 [c2f2]| [B6(g6]|[B2)g2] "rit."z2  b2
|g4   ||
%  die Doppelgriffe gegen Ende der Coda über den Taktstrich binden!
